app/dist/common/images/bitcoin-se.svg

<svg height="18" viewBox="0 0 18 18" width="18" xmlns="http://www.w3.org/2000/svg"><path d="m0 0h18v18h-18z" fill="#f0f3fa"/><path d="m7.59 3.17v3.36h-1.06v.7h.47v3.53h-.47v.71h1.06v1.06h.7v-1.06h1.06v3.53h-.35a6 6 0 0 1 -1.41-11.83z" fill="#616771"/><path d="m8.28 3.04v3.49h1.07v-1.06h.65v1.06c.48 0 1.23.3 1.23 1 0 .62-.37 1.14-.69 1.14.42.12.91.46.91 1.37 0 1-1.09 1.37-1.45 1.4v3.48a6 6 0 0 0 -1.72-11.88z" fill="#e59635"/><path d="m8.3 7.24h1.1a.7.7 0 0 1 0 1.4h-1.1z" fill="#e59635"/><path d="m8.3 9.35h1.4a.7.7 0 1 1 0 1.41h-1.4v-1.4z" fill="#616771"/></svg>

<!-- by TradingView --><svg width="18" height="18" viewBox="0 0 18 18" xmlns="http://www.w3.org/2000/svg"><path fill="#F0F3FA" d="M0 0h18v18H0z"/><path d="M7.59 3.17v3.36H6.53v.7H7v3.53h-.47v.71h1.06v1.06h.7v-1.06h1.06V15L9 15A6 6 0 0 1 7.59 3.17Z" fill="#616771"/><path d="M8.28 3.04v3.49h1.07V5.47H10v1.06c.48 0 1.23.3 1.23 1 0 .62-.37 1.14-.69 1.14.42.12.91.46.91 1.37 0 1-1.09 1.37-1.45 1.4v3.48A6 6 0 0 0 8.28 3.04Z" fill="#E59635"/><path d="M8.3 7.24h1.1a.7.7 0 0 1 0 1.4H8.3v-1.4Z" fill="#E59635"/><path d="M8.3 9.35h1.4a.7.7 0 1 1 0 1.41H8.3v-1.4Z" fill="#616771"/></svg>
